X: 1996
T: Yine Gam Yükünün...
C: (Anonim)
O: Turkey
F: http://compmusic.upf.edu/node/140
N: ussak--turku--nimsofyan--yine_gam--
N: makam= ussak
N: form= turku
N: usul= nimsofyan = 2/4
M: 2/4
L: 1/16
K: C _2/4B   
Q: 1/4=60
%%MIDI tuningsystem comma53
z2ee edd2  | dBc2 c/d/c/B/BA  | dBc2 c{d}c/B/BA  | 
w:   |   |   | 
A4 z4  | z2ee edd2  | dBc2 c/d/c/B/BA  | \
w:   |   |   | 
dBc2 c{d}c/B/BA  | 
w:   | 
A3d ced2  | z2cd d2d2  | dd7  | e2{f}ed ecd2  | \
w:   |  Yi ne  gam  yü  |  kü nün   |  ker *  va *  nı  gel  | 
dc2B cB2A  | 
w:  di    | 
z2cd d2d2  | dd7  | e2{f}ed ecd2  | dc2B cB2A  | \
w:  Yi ne  gam  yü  |  kü nün   |  ker *  va *  nı  gel  |  di    | 
z2ee edd2  | 
w:  Çe ke mem  *  bu   | 
dBcc c{d}BB{c}A  | dBc2 cB2A  | A4 z4  | \
w:  der *  di  de  yav *  *  rum   |  bö lek  *  se nin  |  le    | 
z2ee edd2  | 
w:  Çe ke mem  *  bu   | 
dBcc c{d}BB{c}A  | dBc2 cB2A  | A3d ced2  | \
w:  der *  di  de  yav *  *  rum   |  bö lek  *  se nin  |  le   SAZ  | 
z2cd d2d2  | 
w:  E re mem  lok  | 
dd7  | e2{f}ed ecd2  | dc2B cB2A  | z2cd d2d2  | \
w:  ma na   |  ça *  re *  siz  *  kal  |  dım    |  E re mem  lok  | 
dd7  | 
w:  ma na   | 
e2{f}ed ecd2  | dc2B cB2A  | z2ee edd2  | \
w:  ça *  re *  siz  *  kal  |  dım    |  Çe ke mem  *  bu   | 
dBcc c{d}BB{c}A  | 
w:  der *  di  de  yav *  *  rum   | 
dBc2 c{d}cBA  | A4 z4  | z2ee edd2  | dBcc c{d}BB{c}A  | 
w:  bö lek  *  se *  nin  |  le    |  Çe ke mem  *  bu   |  der *  di  de  yav *  *  rum   | 
dBc2 c{d}cBA  | A4 z4  | z2ee edd2  | dBc2 c/d/c/B/BA  | 
w:  bö lek  *  se *  nin  |  le    |   |   | 
dBc2 c{d}c/B/BA  | A4 z4  | z2ee edd2  | \
w:   |   |   | 
dBc2 c/d/c/B/BA  | 
w:   | 
dBc2 c{d}c/B/BA  | A3d ced2  | z2cd dd3  | \
w:   |   |  Ba ğı mı za   | 
dd7  | e2{f}ed ecd2  | 
w:  ga zel   |  düş *  tü  de  güz_ ol  | 
dc2B cB2A  | z2cd dd3  | dd7  | e2{f}ed ecd2  | \
w:  du    |  Ba ğı mı za   |  ga zel   |  düş *  tü  de  güz_ ol  | 
dc2B cB2A  | 
w:  du    | 
e2ee edd2  | dBcc c{d}BB{c}A  | dBc2 cB2A  | \
w:  Geç ti  de  bu  *  va  |  kit *  ler  *  a *  nam   |  he men  *  kış_ ol  | 
A4 z4  | 
w:  du    | 
e2ee edd2  | dBcc c{d}BB{c}A  | dBc2 cB2A  | \
w:  Geç ti  de  bu  *  va  |  kit *  ler  *  a *  nam   |  he men  *  kış_ ol  | 
A3d ced2  | 
w:  du   SAZ  | 
z2cd d2d2  | dd7  | e2{f}ed ecd2  | dc2B cB2A  | \
w:  Der dim  bin  bir   |  i ken   |  bin  *  beş  *  yüz_ ol  |  du    | 
z2cd d2d2  | 
w:  Der dim  bin  bir   | 
dd7  | e2{f}ed ecd2  | dc2B cB2A  | z2ee edd2  | \
w:  i ken   |  bin  *  beş  *  yüz_ ol  |  du    |  Çe ke mem  *  bu   | 
dBcc c{d}BB{c}A  | 
w:  der *  di  de  yav *  *  rum   | 
dBc2 c{d}cBA  | A4 z4  | z2ee edd2  | dBcc c{d}BB{c}A  | 
w:  bö lek  *  se *  nin  |  le    |  Çe ke mem  *  bu   |  der *  di  de  yav *  *  rum   | 
dBc2 c{d}cBA  | A4 z4  | |


